aro_web/media/aro_app/image/ReplaceDimsToAnnotateFamsWhite_32.svg

<?xml version="1.0" encoding="UTF-8"?>
<svg xmlns="http://www.w3.org/2000/svg" xmlns:xlink="http://www.w3.org/1999/xlink" width="32px" height="32px" viewBox="0 0 32 32" version="1.1">
<g id="surface1">
<path style=" stroke:none;fill-rule:nonzero;fill:rgb(0%,0%,0%);fill-opacity:1;" d="M 29.410156 21.671875 L 10.339844 2.578125 C 9.964844 2.203125 9.457031 1.992188 8.925781 1.992188 C 8.394531 1.992188 7.886719 2.203125 7.511719 2.578125 L 2.589844 7.511719 C 1.816406 8.289062 1.816406 9.550781 2.589844 10.328125 L 21.660156 29.421875 C 22.039062 29.792969 22.546875 30.003906 23.078125 30 C 23.609375 30 24.113281 29.792969 24.488281 29.421875 L 29.410156 24.488281 C 30.183594 23.710938 30.183594 22.449219 29.410156 21.671875 Z M 23.078125 28 L 4 8.921875 L 8.921875 4 L 12.710938 7.789062 L 10.460938 10 L 11.871094 11.410156 L 14.121094 9.199219 L 18.25 13.328125 L 16 15.578125 L 17.421875 17 L 19.671875 14.75 L 23.800781 18.878906 L 21.550781 21.128906 L 23 22.539062 L 25.25 20.289062 L 28 23.078125 Z M 23.078125 28 "/>
</g>
</svg>

<svg version="1.1" xmlns="http://www.w3.org/2000/svg" xmlns:xlink="http://www.w3.org/1999/xlink" width="32px" height="32px" viewBox="0,0,256,256"><g fill="#ffffff" fill-rule="nonzero" stroke="none" stroke-width="1" stroke-linecap="butt" stroke-linejoin="miter" stroke-miterlimit="10" stroke-dasharray="" stroke-dashoffset="0" font-family="none" font-weight="none" font-size="none" text-anchor="none" style="mix-blend-mode: normal"><g transform="translate(0,0.03103) scale(8,8)"><g id="surface1"><path d="M29.41016,21.67188l-19.07031,-19.09375c-0.375,-0.375 -0.88281,-0.58594 -1.41406,-0.58594c-0.53125,0 -1.03906,0.21094 -1.41406,0.58594l-4.92187,4.93359c-0.77344,0.77734 -0.77344,2.03906 0,2.81641l19.07031,19.09375c0.37891,0.37109 0.88672,0.58203 1.41797,0.57813c0.53125,0 1.03516,-0.20703 1.41016,-0.57812l4.92188,-4.93359c0.77344,-0.77734 0.77344,-2.03906 0,-2.81641zM23.07813,28l-19.07812,-19.07812l4.92188,-4.92187l3.78906,3.78906l-2.25,2.21094l1.41016,1.41016l2.25,-2.21094l4.12891,4.12891l-2.25,2.25l1.42188,1.42188l2.25,-2.25l4.12891,4.12891l-2.25,2.25l1.44922,1.41016l2.25,-2.25l2.75,2.78906zM23.07813,28"></path></g></g></g></svg>
